!!!ONB: MCCC : IMC0038_01 : Extracted Monophonic Melody
!!!COM: Clementi, Muzio
!!!OPR: 6 Sonatinas
!!!OMV: 1
!!!SCT: Op.36
!!!ODT: 1797///
**kern
*thru
*staff1
*Ipiano
*clefG2
*k[f#]
*G:
*M2/4
*MM120
8dd
=1
8dd
8b
8b
8gg
=2
4.gg
16ff#
16ee
=3
8dd
8dd
16dd
16ee
16dd
16cc
=4
8b
8dd
8r
8gg
=5
8gg
8dd
8dd
8bb
=6
4.bb
16gg
16ee
=7
8dd
8dd
16dd
16cc#
16b
16cc#
=8
4dd
8r
16aa
16gg
=9
16ff#
16ee
16dd
16cc#
16b
16cc#
16dd
16b
=10
8a
8r
8r
16aa
16gg
=11
16ff#
16ee
16dd
16cc#
16b
16cc#
16dd
16b
=12
8a
8r
16ddd
16aa
16ff#
16dd
=13
8ee
8ee
8aa
8aa
=14
4gg
8ff#
16aa
16gg
=15
16ff#
16ee
16dd
16cc#
16b
16cc#
16dd
16b
=16
16a
16g
16f#
16g
8a
16aa
16gg
=17
16ff#
16ee
16dd
16cc#
16b
16cc#
16dd
16b
=18
8a
8r
16dd
16ff#
16aa
16ddd
=19
16ccc#
16bb
16aa
16gg
16ff#
16ee
16dd
16cc#
=20
16dd
16ff#
16aa
16ff#
16aa
16ff#
16gg
16ee
=21
16dd
16ff#
16aa
16ff#
16aa
16ff#
16gg
16ee
=22
4dd
8r
8dd
=23
8dd
8b
8b
8ff
=24
4.ff
16ee
16dd
=25
8cc
8cc
16cc
16b
16a
16b
=26
8cc
8aa
16ee
16ff
16ee
16dd
=27
8cc
8aa
16ee
16ff
16ee
16dd
=28
16cc
16dd
16cc
16b
16a
16b
16cc
16dd
=29
4.ee
16dd
16cc
=30
16b
16dd
16cc
16b
16a
16cc
16b
16a
=31
16g
16a
16g
16f#
16g
16a
16b
16cc#
=32
8dd
8r
16f#
16g
16f#
16e
=33
8d
8r
16g
16a
16g
16f#
=34
8e
8r
16a
16b
16a
16g
=35
16f#
16g
16f#
16e
16f#
16g
16a
16b
=36
8cc
8r
8r
8dd
=37
8dd
8b
8b
8gg
=38
4.gg
16ff#
16ee
=39
8dd
8dd
16dd
16ee
16dd
16cc
=40
8b
8dd
8r
8b
=41
8b
8a
8a
8ee
=42
4.ee
16cc
16a
=43
8g
8g
16g
16f#
16e
16f#
=44
4g
8r
16dd
16cc
=45
16b
16a
16g
16f#
16e
16f#
16g
16e
=46
8d
8r
8r
16dd
16cc
=47
16b
16a
16g
16f#
16e
16f#
16g
16e
=48
8d
16gg
16ff#
16ee
16dd
16cc
16b
=49
8a
8a
8dd
8dd
=50
4cc
8b
16bb
16aa
=51
16gg
16ff#
16ee
16dd#
16ee
16ff#
16gg
16ee
=52
16dd
16cc
16b
16cc
8dd
16bb
16aa
=53
16gg
16ff#
16ee
16dd#
16ee
16ff#
16gg
16ee
=54
16dd
16gg
16bb
16ddd
16ccc
16bb
16aa
16gg
=55
16ff#
16ee
16dd
16cc
16b
16a
16g
16f#
=56
16g
16b
16dd
16b
16dd
16b
16cc
16a
=57
16g
16b
16dd
16b
16dd
16b
16cc
16a
=58
8g
8r
8gg
8r
=59
4gg
8r
==
*-
